X: 1
T: The Treasurer
T: 8x32J 3C (A.N. Shearer, 1990)
P: L.J. Ginger
C: Nicol McLaren
C: Arr. T. Traub Feb 4 2018
R: jig
M: 6/8
L: 1/8
K: A
e|"A"c2 A "E7"BAG|"A"A2 E E2 A|"D"F2 A "E"AGF|"A"E3 E2 A|"D"FGA AGF|"A"E2 A c2 A|"B"B2 c ^dcB|"E"e3 e2 d||
"A"c2 A "E7"BAG|"A"A2 E E2 A|"D"FAd def|"A"e3 e2 A|"D"FAd def|"A"e2 c ABc |"Bm"d2 B "E"GAB|"A"A3 A2 G||
"D"FGA "E"AGF|"A"F2 E E2 A|"D"F2 A "E"def|"A"e3 e2 A|"D"def "E"fed|"A"e2 c "F"edc|"B"BcB ^dcB|"E"e3 dcB||
"A"c2 A "E7"BAG|"A"A2 E E2 A|"D"FAd def|"A"e3 e2 A|"D"FAd def|"A"e2 c ABc |"Bm"d2 B "E"GAB|"A"A3 A2 |]
